assets/svgs/misc-grey/MiscGrey7.svg

<svg width="37" height="40" viewBox="0 0 37 40" fill="none" xmlns="http://www.w3.org/2000/svg">
<path fill-rule="evenodd" clip-rule="evenodd" d="M12.597 39.073C9.33205 39.073 5.90505 37.868 3.69305 35.217C0.250045 31.088 -0.161954 26.136 2.56305 21.63C3.75005 19.667 11.667 11.817 19.254 4.39798C20.193 3.47998 20.833 2.85398 21.015 2.66898C22.74 0.901978 27.97 -0.940022 32.237 2.81398C36.066 6.56398 35.432 11.334 32.856 14.136C32.131 14.925 25.321 21.842 18.755 28.505L16.979 30.308C16.172 31.131 14.584 32.052 12.861 32.043C11.563 32.017 10.379 31.453 9.43605 30.412C6.89805 27.537 8.77005 24.376 10.112 23.104L24.698 9.11298C25.295 8.53998 26.247 8.55898 26.818 9.15698C27.393 9.75498 27.372 10.704 26.774 11.277L12.182 25.275C11.888 25.563 10.479 27.061 11.672 28.413C12.05 28.829 12.451 29.034 12.921 29.043C12.932 29.044 12.944 29.044 12.956 29.044C13.728 29.044 14.517 28.533 14.838 28.206L16.619 26.398C20.24 22.724 29.86 12.962 30.648 12.105C31.76 10.896 33.098 7.85498 30.196 5.01198C27.072 2.26398 23.55 4.36598 23.161 4.76498C22.975 4.95498 22.316 5.59998 21.352 6.54298C17.624 10.188 6.27905 21.28 5.13005 23.183C3.07905 26.574 3.38705 30.165 5.99705 33.295C8.71405 36.553 14.469 36.818 17.276 34.749C17.307 34.726 17.339 34.704 17.373 34.684C19.598 33.296 28.271 24.189 33.558 18.408C34.117 17.796 35.068 17.755 35.677 18.313C36.289 18.872 36.331 19.82 35.772 20.432C34.404 21.928 22.371 35.044 19.011 37.196C17.333 38.415 15.009 39.073 12.597 39.073Z" fill="#1A1919"/>
</svg>

<svg xmlns="http://www.w3.org/2000/svg" fill="none" viewBox="0 0 37 40"><path fill="#1A1919" fill-rule="evenodd" d="M12.597 39.073c-3.265 0-6.692-1.205-8.904-3.856C.25 31.088-.162 26.136 2.563 21.63c1.187-1.963 9.104-9.813 16.691-17.232.939-.918 1.579-1.544 1.761-1.729C22.74.902 27.97-.94 32.237 2.814c3.829 3.75 3.195 8.52.619 11.322-.725.789-7.535 7.706-14.101 14.369l-1.776 1.803c-.807.823-2.395 1.744-4.118 1.735-1.298-.026-2.482-.59-3.425-1.631-2.538-2.875-.666-6.036.676-7.308L24.698 9.113a1.5 1.5 0 112.076 2.164L12.182 25.275c-.294.288-1.703 1.786-.51 3.138.378.416.779.621 1.249.63l.035.001c.772 0 1.561-.511 1.882-.838l1.781-1.808c3.621-3.674 13.241-13.436 14.029-14.293 1.112-1.209 2.45-4.25-.452-7.093-3.124-2.748-6.646-.646-7.035-.247-.186.19-.845.835-1.809 1.778C17.624 10.188 6.279 21.28 5.13 23.183c-2.051 3.391-1.743 6.982.867 10.112 2.717 3.258 8.472 3.523 11.279 1.454.031-.023.063-.045.097-.065 2.225-1.388 10.898-10.495 16.185-16.276a1.5 1.5 0 012.214 2.024c-1.368 1.496-13.401 14.612-16.761 16.764-1.678 1.219-4.002 1.877-6.414 1.877z" clip-rule="evenodd"/></svg>
